;FLAVOR:Marlin
;TIME:14257
;Filament used: 15.7811m
;Layer height: 0.32
;MINX:61.63
;MINY:101.867
;MINZ:0.32
;MAXX:238.37
;MAXY:228.133
;MAXZ:15.88
;Generated with Cura_SteamEngine 4.3.0
M140 S60
M105
M190 S60
M104 S205
M105
M109 S205
M82 ;absolute extrusion mode
M201 X500.00 Y500.00 Z100.00 E5000.00 ;Setup machine max acceleration
M203 X500.00 Y500.00 Z10.00 E50.00 ;Setup machine max feedrate
M204 P500.00 R1000.00 T500.00 ;Setup Print/Retract/Travel acceleration
M205 X8.00 Y8.00 Z0.40 E5.00 ;Setup Jerk
M220 S100 ;Reset Feedrate
M221 S100 ;Reset Flowrate

G28 ;Home

G92 E0 ;Reset Extruder
G1 Z2.0 F3000 ;Move Z Axis up
G1 X10.1 Y20 Z0.28 F5000.0 ;Move to start position
G1 X10.1 Y200.0 Z0.28 F1500.0 E15 ;Draw the first line
G1 X10.4 Y200.0 Z0.28 F5000.0 ;Move to side a little
G1 X10.4 Y20 Z0.28 F1500.0 E30 ;Draw the second line
G92 E0 ;Reset Extruder
G1 Z2.0 F3000 ;Move Z Axis up

G92 E0
G92 E0
G1 F1500 E-6.5
;LAYER_COUNT:49
;LAYER:0
M107
G1 F300 Z0.52
G0 F6000 X67.052 Y103.402 Z0.52
;TYPE:SKIRT
G1 F300 Z0.32
G1 F1500 E0
G1 F1200 X67.88 Y102.96 E0.04995
G1 X68.742 Y102.591 E0.09985
G1 X69.632 Y102.296 E0.14974
G1 X70.544 Y102.078 E0.19964
G1 X71.472 Y101.939 E0.24958
G1 X72.322 Y101.882 E0.29491
G1 X72.633 Y101.873 E0.31147
G1 X72.943 Y101.868 E0.32797
G1 X74.286 Y101.867 E0.39944
G1 X74.442 Y101.868 E0.40774
G1 X75.112 Y101.877 E0.4434
G1 X76.048 Y101.93 E0.49329
G1 X76.977 Y102.062 E0.54322
G1 X77.707 Y102.223 E0.58301
G1 X79.897 Y102.787 E0.70335
G1 X82.342 Y103.348 E0.83685
G1 X84.868 Y103.857 E0.97397
G1 X87.258 Y104.263 E1.10298
G1 X89.8 Y104.624 E1.23962
G1 X92.29 Y104.907 E1.37298
G1 X94.797 Y105.12 E1.50687
G1 X97.273 Y105.259 E1.63884
G1 X101.205 Y105.342 E1.84813
G1 X226.662 Y105.341 E8.52448
G1 X226.819 Y105.342 E8.53284
G1 X227.518 Y105.352 E8.57004
G1 X228.455 Y105.406 E8.61998
G1 X229.383 Y105.538 E8.66987
G1 X230.297 Y105.75 E8.7198
G1 X231.189 Y106.039 E8.76969
G1 X232.054 Y106.402 E8.81962
G1 X232.884 Y106.838 E8.86951
G1 X233.674 Y107.343 E8.91941
G1 X234.419 Y107.914 E8.96936
G1 X235.112 Y108.546 E9.01927
G1 X235.749 Y109.234 E9.06916
G1 X236.324 Y109.975 E9.11908
G1 X236.835 Y110.761 E9.16897
G1 X237.277 Y111.589 E9.21892
G1 X237.646 Y112.45 E9.26877
G1 X237.941 Y113.341 E9.31871
G1 X238.159 Y114.253 E9.36861
G1 X238.299 Y115.18 E9.4185
G1 X238.357 Y116.041 E9.46443
G1 X238.366 Y116.36 E9.48141
G1 X238.37 Y116.67 E9.49791
G1 X238.37 Y122.952 E9.83221
G1 X238.369 Y123.11 E9.84062
G1 X238.359 Y123.807 E9.87772
G1 X238.308 Y124.719 E9.92633
G1 X238.2 Y125.824 E9.98541
G1 X237.958 Y128.534 E10.1302
G1 X237.811 Y131.04 E10.26379
G1 X237.733 Y133.574 E10.3987
G1 X237.726 Y136.098 E10.53302
G1 X237.791 Y138.586 E10.66547
G1 X237.927 Y141.105 E10.79971
G1 X238.14 Y143.677 E10.93706
G1 X238.297 Y145.166 E11.01673
G1 X238.352 Y145.943 E11.05819
G1 X238.364 Y146.292 E11.07677
G1 X238.37 Y146.67 E11.09689
G1 X238.37 Y152.952 E11.43119
G1 X238.369 Y153.11 E11.4396
G1 X238.359 Y153.808 E11.47675
G1 X238.308 Y154.721 E11.52541
G1 X238.2 Y155.825 E11.58444
G1 X237.958 Y158.534 E11.72918
G1 X237.811 Y161.04 E11.86277
G1 X237.733 Y163.574 E11.99768
G1 X237.726 Y166.098 E12.132
G1 X237.791 Y168.586 E12.26445
G1 X237.927 Y171.105 E12.39869
G1 X238.14 Y173.677 E12.53603
G1 X238.297 Y175.166 E12.61571
G1 X238.352 Y175.943 E12.65717
G1 X238.364 Y176.292 E12.67575
G1 X238.37 Y176.67 E12.69587
G1 X238.37 Y182.952 E13.03017
G1 X238.369 Y183.11 E13.03858
G1 X238.359 Y183.808 E13.07573
G1 X238.308 Y184.721 E13.12439
G1 X238.2 Y185.825 E13.18342
G1 X237.958 Y188.534 E13.32816
G1 X237.811 Y191.04 E13.46175
G1 X237.733 Y193.574 E13.59666
G1 X237.726 Y196.098 E13.73098
G1 X237.791 Y198.586 E13.86343
G1 X237.927 Y201.105 E13.99767
G1 X238.14 Y203.677 E14.13501
G1 X238.297 Y205.166 E14.21469
G1 X238.352 Y205.943 E14.25614
G1 X238.364 Y206.292 E14.27473
G1 X238.37 Y206.67 E14.29485
G1 X238.37 Y212.923 E14.62761
G1 X238.369 Y213.074 E14.63564
G1 X238.359 Y213.801 E14.67434
G1 X238.306 Y214.738 E14.72428
G1 X238.174 Y215.666 E14.77416
G1 X237.963 Y216.58 E14.82408
G1 X237.674 Y217.472 E14.87398
G1 X237.311 Y218.337 E14.9239
G1 X236.876 Y219.168 E14.97381
G1 X236.371 Y219.958 E15.02371
G1 X235.801 Y220.703 E15.07363
G1 X235.17 Y221.397 E15.12354
G1 X234.481 Y222.034 E15.17348
G1 X233.741 Y222.61 E15.22338
G1 X232.955 Y223.121 E15.27327
G1 X232.128 Y223.563 E15.32317
G1 X231.266 Y223.933 E15.37309
G1 X230.376 Y224.228 E15.42299
G1 X229.464 Y224.447 E15.4729
G1 X228.537 Y224.587 E15.52279
G1 X227.672 Y224.646 E15.56893
G1 X227.355 Y224.655 E15.58581
G1 X227.04 Y224.659 E15.60257
G1 X223.628 Y224.658 E15.78415
G1 X101.16 Y224.659 E22.30143
G1 X98.552 Y224.696 E22.44023
G1 X96.031 Y224.803 E22.57451
G1 X93.536 Y224.98 E22.70762
G1 X91.037 Y225.228 E22.84126
G1 X88.543 Y225.547 E22.97506
G1 X86.05 Y225.938 E23.10935
G1 X83.56 Y226.401 E23.24413
G1 X81.116 Y226.927 E23.37717
G1 X78.453 Y227.582 E23.52311
G1 X77.76 Y227.763 E23.56123
G1 X76.843 Y227.961 E23.61115
G1 X75.913 Y228.081 E23.66105
G1 X75.4 Y228.112 E23.6884
G1 X75.058 Y228.125 E23.70661
G1 X74.64 Y228.133 E23.72886
G1 X73.337 Y228.133 E23.7982
G1 X73.195 Y228.132 E23.80576
G1 X72.497 Y228.123 E23.84291
G1 X71.561 Y228.071 E23.8928
G1 X70.632 Y227.939 E23.94273
G1 X69.718 Y227.729 E23.99264
G1 X68.825 Y227.442 E24.04255
G1 X67.96 Y227.079 E24.09247
G1 X67.129 Y226.645 E24.14236
G1 X66.338 Y226.141 E24.19228
G1 X65.593 Y225.571 E24.2422
G1 X64.899 Y224.94 E24.29211
G1 X64.262 Y224.253 E24.34197
G1 X63.685 Y223.513 E24.39191
G1 X63.173 Y222.727 E24.44182
G1 X62.73 Y221.9 E24.49175
G1 X62.359 Y221.039 E24.54164
G1 X62.063 Y220.149 E24.59156
G1 X61.844 Y219.237 E24.64147
G1 X61.703 Y218.31 E24.69137
G1 X61.643 Y217.421 E24.73878
G1 X61.634 Y217.088 E24.75651
G1 X61.63 Y216.791 E24.77232
G1 X61.63 Y203.575 E25.47562
G1 X61.631 Y203.419 E25.48393
G1 X61.641 Y202.712 E25.52155
G1 X61.667 Y202.093 E25.55452
G1 X61.724 Y201.286 E25.59758
G1 X61.865 Y198.798 E25.73019
G1 X61.937 Y196.24 E25.86637
G1 X61.937 Y193.752 E25.99877
G1 X61.865 Y191.192 E26.13506
G1 X61.722 Y188.684 E26.26874
G1 X61.667 Y187.912 E26.30993
G1 X61.643 Y187.433 E26.33545
G1 X61.634 Y187.114 E26.35244
G1 X61.63 Y186.804 E26.36893
G1 X61.63 Y173.575 E27.07293
G1 X61.631 Y173.419 E27.08123
G1 X61.641 Y172.712 E27.11886
G1 X61.667 Y172.093 E27.15183
G1 X61.724 Y171.286 E27.19488
G1 X61.865 Y168.798 E27.3275
G1 X61.937 Y166.24 E27.46368
G1 X61.937 Y163.752 E27.59608
G1 X61.865 Y161.192 E27.73237
G1 X61.722 Y158.684 E27.86605
G1 X61.667 Y157.912 E27.90724
G1 X61.643 Y157.433 E27.93276
G1 X61.634 Y157.114 E27.94974
G1 X61.63 Y156.804 E27.96624
G1 X61.63 Y143.575 E28.67024
G1 X61.631 Y143.419 E28.67854
G1 X61.641 Y142.712 E28.71617
G1 X61.667 Y142.093 E28.74914
G1 X61.724 Y141.286 E28.79219
G1 X61.865 Y138.798 E28.92481
G1 X61.937 Y136.24 E29.06099
G1 X61.937 Y133.752 E29.19339
G1 X61.865 Y131.192 E29.32968
G1 X61.722 Y128.684 E29.46336
G1 X61.667 Y127.912 E29.50455
G1 X61.643 Y127.433 E29.53007
G1 X61.634 Y127.114 E29.54705
G1 X61.63 Y126.804 E29.56355
G1 X61.63 Y113.566 E30.26803
G1 X61.631 Y113.406 E30.27654
G1 X61.641 Y112.717 E30.31321
G1 X61.695 Y111.781 E30.3631
G1 X61.828 Y110.853 E30.41299
G1 X62.04 Y109.939 E30.46292
G1 X62.328 Y109.047 E30.51281
G1 X62.692 Y108.182 E30.56275
G1 X63.128 Y107.352 E30.61264
G1 X63.633 Y106.562 E30.66254
G1 X64.204 Y105.818 E30.71245
G1 X64.836 Y105.125 E30.76236
G1 X65.525 Y104.488 E30.81229
G1 X66.265 Y103.912 E30.8622
G1 X67.052 Y103.402 E30.9121
G0 F6000 X67.431 Y103.645
G1 F1200 X68.252 Y103.228 E30.96111
G1 X69.106 Y102.884 E31.0101
G1 X69.986 Y102.615 E31.05907
G1 X70.887 Y102.423 E31.10809
G1 X71.8 Y102.31 E31.15705
G1 X72.333 Y102.281 E31.18546
G1 X72.644 Y102.272 E31.20202
G1 X72.943 Y102.268 E31.21793
G1 X74.286 Y102.267 E31.2894
G1 X74.436 Y102.268 E31.29738
G1 X75.106 Y102.277 E31.33304
G1 X76.026 Y102.329 E31.38208
G1 X76.937 Y102.461 E31.43106
G1 X77.607 Y102.611 E31.4676
G1 X79.786 Y103.172 E31.58734
G1 X82.28 Y103.745 E31.72352
G1 X84.756 Y104.243 E31.85792
G1 X87.207 Y104.66 E31.99023
G1 X89.77 Y105.024 E32.12799
G1 X92.247 Y105.305 E32.26065
G1 X94.775 Y105.52 E32.39567
G1 X97.243 Y105.659 E32.52721
G1 X101.197 Y105.742 E32.73768
G1 X226.662 Y105.741 E39.41445
G1 X226.814 Y105.742 E39.42254
G1 X227.513 Y105.752 E39.45974
G1 X228.432 Y105.805 E39.50873
G1 X229.343 Y105.938 E39.55772
G1 X230.239 Y106.149 E39.60671
G1 X231.113 Y106.437 E39.65568
G1 X231.959 Y106.8 E39.70467
G1 X232.771 Y107.235 E39.75369
G1 X233.541 Y107.739 E39.80266
G1 X234.265 Y108.308 E39.85167
G1 X234.937 Y108.937 E39.90065
G1 X235.552 Y109.623 E39.94968
G1 X236.105 Y110.359 E39.99867
G1 X236.592 Y111.14 E40.04765
G1 X237.009 Y111.961 E40.09665
G1 X237.354 Y112.815 E40.14567
G1 X237.623 Y113.695 E40.19464
G1 X237.815 Y114.595 E40.24361
G1 X237.928 Y115.509 E40.29262
G1 X237.957 Y116.052 E40.32156
G1 X237.966 Y116.371 E40.33854
G1 X237.97 Y116.67 E40.35445
G1 X237.97 Y122.952 E40.68876
G1 X237.969 Y123.104 E40.69685
G1 X237.959 Y123.801 E40.73394
G1 X237.91 Y124.68 E40.78079
G1 X237.802 Y125.785 E40.83988
G1 X237.559 Y128.506 E40.98525
G1 X237.41 Y131.041 E41.12039
G1 X237.333 Y133.561 E41.25456
G1 X237.326 Y136.107 E41.39005
G1 X237.391 Y138.619 E41.52377
G1 X237.527 Y141.123 E41.65722
G1 X237.741 Y143.708 E41.79525
G1 X237.899 Y145.208 E41.87552
G1 X237.952 Y145.957 E41.91548
G1 X237.964 Y146.306 E41.93406
G1 X237.97 Y146.67 E41.95343
G1 X237.97 Y152.952 E42.28774
G1 X237.969 Y153.104 E42.29583
G1 X237.959 Y153.802 E42.33298
G1 X237.91 Y154.682 E42.37988
G1 X237.802 Y155.786 E42.43891
G1 X237.559 Y158.506 E42.58424
G1 X237.41 Y161.041 E42.71937
G1 X237.333 Y163.561 E42.85354
G1 X237.326 Y166.107 E42.98903
G1 X237.391 Y168.619 E43.12275
G1 X237.527 Y171.123 E43.2562
G1 X237.741 Y173.708 E43.39424
G1 X237.899 Y175.208 E43.4745
G1 X237.952 Y175.957 E43.51446
G1 X237.964 Y176.306 E43.53304
G1 X237.97 Y176.67 E43.55242
G1 X237.97 Y182.952 E43.88672
G1 X237.969 Y183.104 E43.89481
G1 X237.959 Y183.802 E43.93196
G1 X237.91 Y184.682 E43.97886
G1 X237.802 Y185.786 E44.03789
G1 X237.559 Y188.506 E44.18322
G1 X237.41 Y191.041 E44.31835
G1 X237.333 Y193.561 E44.45252
G1 X237.326 Y196.107 E44.58801
G1 X237.391 Y198.619 E44.72173
G1 X237.527 Y201.123 E44.85518
G1 X237.741 Y203.708 E44.99322
G1 X237.899 Y205.208 E45.07348
G1 X237.952 Y205.957 E45.11344
G1 X237.964 Y206.306 E45.13203
G1 X237.97 Y206.67 E45.1514
G1 X237.97 Y212.923 E45.48416
G1 X237.969 Y213.069 E45.49193
G1 X237.959 Y213.796 E45.53062
G1 X237.906 Y214.715 E45.57961
G1 X237.774 Y215.626 E45.6286
G1 X237.563 Y216.522 E45.67758
G1 X237.276 Y217.397 E45.72659
G1 X236.913 Y218.243 E45.77558
G1 X236.479 Y219.055 E45.82457
G1 X235.975 Y219.826 E45.87359
G1 X235.407 Y220.55 E45.92256
G1 X234.778 Y221.222 E45.97154
G1 X234.093 Y221.837 E46.02053
G1 X233.357 Y222.39 E46.06952
G1 X232.576 Y222.878 E46.11853
G1 X231.756 Y223.296 E46.16751
G1 X230.902 Y223.641 E46.21653
G1 X230.022 Y223.91 E46.2655
G1 X229.121 Y224.103 E46.31453
G1 X228.208 Y224.216 E46.36349
G1 X227.661 Y224.246 E46.39264
G1 X227.344 Y224.255 E46.40952
G1 X227.04 Y224.259 E46.4257
G1 X223.628 Y224.258 E46.60727
G1 X101.154 Y224.259 E53.12488
G1 X98.529 Y224.296 E53.26458
G1 X96.021 Y224.403 E53.39817
G1 X93.501 Y224.581 E53.53261
G1 X90.983 Y224.831 E53.66727
G1 X88.501 Y225.148 E53.80042
G1 X85.945 Y225.55 E53.93811
G1 X83.514 Y226.002 E54.0697
G1 X81.009 Y226.541 E54.20606
G1 X78.386 Y227.186 E54.3498
G1 X77.659 Y227.376 E54.38979
G1 X76.759 Y227.57 E54.43878
G1 X75.846 Y227.685 E54.48775
G1 X75.385 Y227.712 E54.51233
G1 X75.043 Y227.725 E54.53054
G1 X74.64 Y227.733 E54.55199
G1 X73.337 Y227.733 E54.62133
G1 X73.2 Y227.732 E54.62862
G1 X72.502 Y227.723 E54.66577
G1 X71.583 Y227.671 E54.71476
G1 X70.672 Y227.54 E54.76373
G1 X69.776 Y227.33 E54.81271
G1 X68.901 Y227.043 E54.86171
G1 X68.054 Y226.681 E54.91073
G1 X67.242 Y226.247 E54.95973
G1 X66.471 Y225.745 E55.00869
G1 X65.746 Y225.177 E55.0577
G1 X65.073 Y224.548 E55.10672
G1 X64.458 Y223.864 E55.15567
G1 X63.904 Y223.129 E55.20465
G1 X63.416 Y222.348 E55.25366
G1 X62.997 Y221.528 E55.30266
G1 X62.651 Y220.675 E55.35165
G1 X62.381 Y219.795 E55.40064
G1 X62.188 Y218.894 E55.44967
G1 X62.074 Y217.981 E55.49863
G1 X62.043 Y217.41 E55.52907
G1 X62.034 Y217.077 E55.54679
G1 X62.03 Y216.791 E55.56201
G1 X62.03 Y203.575 E56.26532
G1 X62.031 Y203.425 E56.2733
G1 X62.041 Y202.718 E56.31093
G1 X62.066 Y202.121 E56.34273
G1 X62.12 Y201.362 E56.38322
G1 X62.265 Y198.796 E56.51999
G1 X62.337 Y196.239 E56.65612
G1 X62.337 Y193.741 E56.78905
G1 X62.265 Y191.194 E56.92465
G1 X62.12 Y188.629 E57.06137
G1 X62.066 Y187.883 E57.10117
G1 X62.043 Y187.422 E57.12573
G1 X62.034 Y187.103 E57.14272
G1 X62.03 Y186.804 E57.15863
G1 X62.03 Y173.575 E57.86263
G1 X62.031 Y173.425 E57.87061
G1 X62.041 Y172.718 E57.90824
G1 X62.066 Y172.121 E57.94003
G1 X62.12 Y171.362 E57.98053
G1 X62.265 Y168.796 E58.1173
G1 X62.337 Y166.239 E58.25343
G1 X62.337 Y163.741 E58.38636
G1 X62.265 Y161.194 E58.52196
G1 X62.12 Y158.629 E58.65867
G1 X62.066 Y157.883 E58.69848
G1 X62.043 Y157.422 E58.72304
G1 X62.034 Y157.103 E58.74002
G1 X62.03 Y156.804 E58.75594
G1 X62.03 Y143.575 E59.45993
G1 X62.031 Y143.425 E59.46792
G1 X62.041 Y142.718 E59.50554
G1 X62.066 Y142.121 E59.53734
G1 X62.12 Y141.362 E59.57783
G1 X62.265 Y138.796 E59.71461
G1 X62.337 Y136.239 E59.85073
G1 X62.337 Y133.741 E59.98367
G1 X62.265 Y131.194 E60.11926
G1 X62.12 Y128.629 E60.25598
G1 X62.066 Y127.883 E60.29578
G1 X62.043 Y127.422 E60.32035
G1 X62.034 Y127.103 E60.33733
G1 X62.03 Y126.804 E60.35324
G1 X62.03 Y113.566 E61.05772
G1 X62.031 Y113.412 E61.06591
G1 X62.041 Y112.723 E61.10258
G1 X62.094 Y111.804 E61.15157
G1 X62.227 Y110.893 E61.20057
G1 X62.439 Y109.997 E61.24956
G1 X62.727 Y109.123 E61.29853
G1 X63.09 Y108.277 E61.34752
G1 X63.525 Y107.465 E61.39655
G1 X64.029 Y106.695 E61.44552
G1 X64.598 Y105.971 E61.49452
G1 X65.228 Y105.299 E61.54354
G1 X65.913 Y104.685 E61.5925
G1 X66.65 Y104.132 E61.64153
G1 X67.431 Y103.645 E61.69051
G0 F6000 X67.809 Y103.894
G1 F1200 X68.622 Y103.502 E61.73854
G1 X69.467 Y103.183 E61.78661
G1 X70.337 Y102.94 E61.83468
G1 X71.225 Y102.776 E61.88273
G1 X72.345 Y102.681 E61.94255
G1 X72.656 Y102.672 E61.95911
G1 X72.943 Y102.668 E61.97438
G1 X74.286 Y102.667 E62.04585
G1 X74.431 Y102.668 E62.05357
G1 X75.101 Y102.677 E62.08922
G1 X76.003 Y102.729 E62.1373
G1 X76.896 Y102.861 E62.18534
G1 X77.507 Y102.998 E62.21867
G1 X79.703 Y103.563 E62.33933
G1 X82.19 Y104.134 E62.47513
G1 X84.675 Y104.635 E62.61003
G1 X87.196 Y105.063 E62.74611
G1 X89.666 Y105.414 E62.87887
G1 X92.201 Y105.702 E63.01464
G1 X94.757 Y105.919 E63.15115
G1 X97.24 Y106.059 E63.2835
G1 X101.188 Y106.142 E63.49364
G1 X226.662 Y106.141 E70.17089
G1 X226.808 Y106.142 E70.17866
G1 X227.507 Y106.152 E70.21587
G1 X228.408 Y106.205 E70.2639
G1 X229.302 Y106.337 E70.31199
G1 X230.18 Y106.548 E70.36004
G1 X231.036 Y106.836 E70.4081
G1 X231.863 Y107.198 E70.45615
G1 X232.655 Y107.632 E70.50421
G1 X233.406 Y108.135 E70.55231
G1 X234.109 Y108.702 E70.60037
G1 X234.759 Y109.329 E70.64843
G1 X235.351 Y110.011 E70.69649
G1 X235.88 Y110.742 E70.74451
G1 X236.343 Y111.518 E70.7926
G1 X236.735 Y112.331 E70.84063
G1 X237.054 Y113.176 E70.88869
G1 X237.297 Y114.046 E70.93676
G1 X237.462 Y114.934 E70.98483
G1 X237.557 Y116.063 E71.04512
G1 X237.566 Y116.382 E71.0621
G1 X237.57 Y116.67 E71.07743
G1 X237.57 Y122.952 E71.41174
G1 X237.569 Y123.098 E71.41951
G1 X237.559 Y123.795 E71.4566
G1 X237.512 Y124.641 E71.50169
G1 X237.404 Y125.746 E71.56078
G1 X237.158 Y128.507 E71.70829
G1 X237.011 Y131.006 E71.84151
G1 X236.933 Y133.548 E71.97684
G1 X236.926 Y136.081 E72.11164
G1 X236.993 Y138.649 E72.24835
G1 X237.13 Y141.179 E72.38318
G1 X237.338 Y143.695 E72.51753
G1 X237.502 Y145.25 E72.60074
G1 X237.552 Y145.97 E72.63915
G1 X237.564 Y146.319 E72.65773
G1 X237.57 Y146.67 E72.67641
G1 X237.57 Y152.952 E73.01072
G1 X237.569 Y153.098 E73.01849
G1 X237.559 Y153.796 E73.05564
G1 X237.512 Y154.643 E73.10078
G1 X237.404 Y155.747 E73.15981
G1 X237.158 Y158.507 E73.30727
G1 X237.011 Y161.006 E73.44049
G1 X236.933 Y163.548 E73.57583
